X: 2
T: The Milliner's Daughter
R: reel
M: 4/4
L: 1/8
K: Gmaj
|:G2BG DG (3Bcd|{g}~a3g fdcA|FGBG dG (3Bcd|cAFG AG{A}GF|GdBG DG (3Bcd|{g}~a3g fdcA|FG{A}GF D2Bd|cAFG AG{A}GF:||:d~g2f d~g2f|df~f2 d~f2e|d2gf ~g3f|d2de fdcA|dg~g2 b2ag|e~f2e ~f3g|af{a}ge fd~e2|d2 (3efg fdcA:|


Tune 1409	Setting 1409

